24x24/apps/appimagekit-tc.svg

<svg xmlns="http://www.w3.org/2000/svg" width="24" height="24" version="1.1">
 <path style="opacity:0.2" d="m 14.777344,6.4995854 c -0.657495,0 -1.265779,0.1875352 -1.796875,0.5019531 C 14.215799,8.1347303 15,9.7564527 15,11.499585 h -2 c 0,-1.348652 -0.73025,-2.6179906 -1.824219,-3.3769527 -0.03974,-0.026125 -0.07464,-0.059207 -0.115234,-0.083984 -0.0012,-7.59e-4 -0.0027,-0.0012 -0.0039,-0.00195 C 10.513577,7.7060182 9.8948977,7.4995854 9.2226562,7.4995854 H 4.7773438 C 2.7196373,7.4995854 1,9.2192219 1,11.276929 v 2.466797 c 0,2.057751 1.7529505,3.73937 3.7617188,3.755859 a 2.0002,2.0002 0 0 0 0.015625,0 H 5 a 2.0002,2.0002 0 0 0 3.4140625,1.414062 L 9.828125,17.499585 H 9.2226562 c 0.6537852,0 1.2644768,-0.187687 1.7988278,-0.503906 C 9.7864488,15.862347 9,14.242385 9,12.499585 h 2 c 0,1.348137 0.728996,2.617885 1.822266,3.376953 0.04149,0.02717 0.07869,0.06024 0.121093,0.08594 0.545933,0.330883 1.166639,0.537109 1.833985,0.537109 h 1.394531 l 1.414063,1.414062 A 2.0002,2.0002 0 0 0 21,16.499585 v -0.525391 c 1.155339,-0.644636 2,-1.827229 2,-3.230468 V 10.276929 C 23,8.2192219 21.280363,6.4995854 19.222656,6.4995854 Z"/>
 <path style="fill:#5d51ae" d="M 14.777344 6 C 14.119849 6 13.511565 6.1875352 12.980469 6.5019531 C 14.215799 7.6351449 15 9.2568673 15 11 L 13 11 C 13 9.6513481 12.26975 8.382009 11.175781 7.6230469 C 11.136041 7.5969218 11.101143 7.5638397 11.060547 7.5390625 C 11.059303 7.5383035 11.057885 7.5378671 11.056641 7.5371094 C 10.513577 7.2064328 9.8948977 7 9.2226562 7 L 4.7773438 7 C 2.7196373 7 1 8.7196365 1 10.777344 L 1 13.244141 C 1 15.301892 2.7529505 16.983511 4.7617188 17 A 2.0002 2.0002 0 0 0 4.7773438 17 L 5 17 A 2.0002 2.0002 0 0 0 8.4140625 18.414062 L 9.828125 17 L 9.2226562 17 C 9.8764414 17 10.487133 16.812313 11.021484 16.496094 C 9.7864488 15.362762 9 13.7428 9 12 L 11 12 C 11 13.348137 11.728996 14.617885 12.822266 15.376953 C 12.863759 15.404122 12.900961 15.437193 12.943359 15.462891 C 13.489292 15.793774 14.109998 16 14.777344 16 L 16.171875 16 L 17.585938 17.414062 A 2.0002 2.0002 0 0 0 21 16 L 21 15.474609 C 22.155339 14.829973 23 13.64738 23 12.244141 L 23 9.7773438 C 23 7.7196365 21.280363 6 19.222656 6 L 14.777344 6 z"/>
 <path style="opacity:0.2" d="M 14.777344,8.4995854 C 13.792455,8.4995854 13,9.29204 13,10.276929 v 2.466797 c 0,0.984889 0.792455,1.755859 1.777344,1.755859 H 17 l 2,2 v -2 h 0.222656 C 20.207512,14.491501 21,13.728615 21,12.743726 V 10.276929 C 21,9.29204 20.207545,8.4995854 19.222656,8.4995854 Z m -10.0000002,1 C 3.7924548,9.4995854 3,10.29204 3,11.276929 v 2.466797 c 0,0.984889 0.792488,1.747775 1.7773438,1.755859 H 7 v 2 l 2,-2 H 9.2226562 C 10.207545,15.499585 11,14.728615 11,13.743726 V 11.276929 C 11,10.29204 10.207545,9.4995854 9.2226562,9.4995854 Z"/>
 <path style="fill:#f4f4f7" d="M 14.777344 8 C 13.792455 8 13 8.7924546 13 9.7773438 L 13 12.244141 C 13 13.22903 13.792455 14 14.777344 14 L 17 14 L 19 16 L 19 14 L 19.222656 14 C 20.207512 13.991916 21 13.22903 21 12.244141 L 21 9.7773438 C 21 8.7924546 20.207545 8 19.222656 8 L 14.777344 8 z M 4.7773438 9 C 3.7924548 9 3 9.7924546 3 10.777344 L 3 13.244141 C 3 14.22903 3.792488 14.991916 4.7773438 15 L 7 15 L 7 17 L 9 15 L 9.2226562 15 C 10.207545 15 11 14.22903 11 13.244141 L 11 10.777344 C 11 9.7924546 10.207545 9 9.2226562 9 L 4.7773438 9 z"/>
 <path style="opacity:0.1;fill:#f4f4f7" d="M 14.777344 6 C 14.119849 6 13.511565 6.1875352 12.980469 6.5019531 C 13.095177 6.6071776 13.201931 6.7206292 13.308594 6.8339844 C 13.757696 6.624537 14.250728 6.5 14.777344 6.5 L 19.222656 6.5 C 21.280363 6.5 23 8.2196365 23 10.277344 L 23 9.7773438 C 23 7.7196364 21.280363 6 19.222656 6 L 14.777344 6 z M 4.7773438 7 C 2.7196373 7 1 8.7196363 1 10.777344 L 1 11.277344 C 1 9.2196365 2.7196373 7.5 4.7773438 7.5 L 9.2226562 7.5 C 9.8948978 7.5 10.513571 7.7064293 11.056641 8.0371094 C 11.057841 8.0378594 11.059347 8.0383035 11.060547 8.0390625 C 11.101141 8.0638395 11.136041 8.0969219 11.175781 8.1230469 C 12.26975 8.882009 13 10.151348 13 11.5 L 15 11.5 C 15 11.331983 14.986929 11.165432 14.972656 11 L 13 11 C 13 9.6513481 12.26975 8.382009 11.175781 7.6230469 C 11.136041 7.5969218 11.101143 7.5638397 11.060547 7.5390625 C 11.059303 7.5383035 11.057885 7.5378671 11.056641 7.5371094 C 10.513577 7.2064328 9.8948978 7 9.2226562 7 L 4.7773438 7 z M 9 12.5 C 9 14.080969 9.6512209 15.556832 10.693359 16.664062 C 10.804848 16.612002 10.915719 16.558684 11.021484 16.496094 C 9.9058565 15.472336 9.1638141 14.049772 9.0292969 12.5 L 9 12.5 z M 9.3359375 17.492188 C 9.2978718 17.493468 9.2610255 17.5 9.2226562 17.5 L 9.328125 17.5 L 9.3359375 17.492188 z"/>
</svg>

<svg xmlns="http://www.w3.org/2000/svg" width="24" height="24"><path style="opacity:.2" d="M14.777 6.5c-.657 0-1.265.187-1.797.502C14.216 8.135 15 9.756 15 11.5h-2c0-1.35-.73-2.618-1.824-3.377-.04-.026-.075-.06-.115-.084l-.004-.002A3.508 3.508 0 0 0 9.223 7.5H4.777C2.72 7.5 1 9.22 1 11.277v2.467c0 2.057 1.753 3.74 3.762 3.756a2 2 0 0 0 .015 0H5a2 2 0 0 0 3.414 1.414L9.828 17.5h-.605c.653 0 1.264-.188 1.798-.504C9.786 15.862 9 14.242 9 12.5h2c0 1.348.729 2.617 1.822 3.377.042.027.079.06.121.085.546.331 1.167.538 1.834.538h1.395l1.414 1.414A2 2 0 0 0 21 16.5v-.526c1.155-.644 2-1.827 2-3.23v-2.467C23 8.219 21.28 6.5 19.223 6.5z"/><path style="fill:#5d51ae" d="M14.777 6c-.657 0-1.265.188-1.797.502C14.216 7.635 15 9.257 15 11h-2c0-1.349-.73-2.618-1.824-3.377-.04-.026-.075-.06-.115-.084l-.004-.002A3.508 3.508 0 0 0 9.223 7H4.777C2.72 7 1 8.72 1 10.777v2.467c0 2.058 1.753 3.74 3.762 3.756a2 2 0 0 0 .015 0H5a2 2 0 0 0 3.414 1.414L9.828 17h-.605c.653 0 1.264-.188 1.798-.504C9.786 15.363 9 13.743 9 12h2c0 1.348.729 2.618 1.822 3.377.042.027.079.06.121.086.546.33 1.167.537 1.834.537h1.395l1.414 1.414A2 2 0 0 0 21 16v-.525c1.155-.645 2-1.828 2-3.23V9.776C23 7.72 21.28 6 19.223 6h-4.446z"/><path style="opacity:.2" d="M14.777 8.5c-.985 0-1.777.792-1.777 1.777v2.467c0 .985.792 1.756 1.777 1.756H17l2 2v-2h.223c.985-.008 1.777-.771 1.777-1.756v-2.467c0-.985-.792-1.777-1.777-1.777zm-10 1C3.792 9.5 3 10.292 3 11.277v2.467c0 .985.792 1.748 1.777 1.756H7v2l2-2h.223c.985 0 1.777-.771 1.777-1.756v-2.467c0-.985-.792-1.777-1.777-1.777z"/><path style="fill:#f4f4f7" d="M14.777 8C13.792 8 13 8.792 13 9.777v2.467c0 .985.792 1.756 1.777 1.756H17l2 2v-2h.223c.985-.008 1.777-.771 1.777-1.756V9.777C21 8.792 20.208 8 19.223 8h-4.446zm-10 1C3.792 9 3 9.792 3 10.777v2.467c0 .985.792 1.748 1.777 1.756H7v2l2-2h.223c.985 0 1.777-.771 1.777-1.756v-2.467C11 9.792 10.208 9 9.223 9H4.777z"/><path style="opacity:.1;fill:#f4f4f7" d="M14.777 6c-.657 0-1.265.188-1.797.502.115.105.222.219.329.332.449-.21.942-.334 1.468-.334h4.446C21.28 6.5 23 8.22 23 10.277v-.5C23 7.72 21.28 6 19.223 6h-4.446zm-10 1C2.72 7 1 8.72 1 10.777v.5C1 9.22 2.72 7.5 4.777 7.5h4.446c.672 0 1.29.206 1.834.537l.004.002c.04.025.075.058.115.084C12.27 8.882 13 10.151 13 11.5h2a5.81 5.81 0 0 0-.027-.5H13c0-1.349-.73-2.618-1.824-3.377-.04-.026-.075-.06-.115-.084l-.004-.002A3.508 3.508 0 0 0 9.223 7H4.777zM9 12.5c0 1.581.651 3.057 1.693 4.164.112-.052.223-.105.328-.168C9.906 15.472 9.164 14.05 9.03 12.5H9zm.336 4.992c-.038.001-.075.008-.113.008h.105l.008-.008z"/></svg>
